X:1
T:Title
%%score { ( 1 3 5 ) | ( 2 4 6 ) }
L:1/8
M:6/8
K:Db
V:1 treble nm="Grand Piano"
V:3 treble 
V:5 treble 
V:2 bass 
V:4 bass 
V:6 bass 
V:1
 z3 z2[Q:1/4=84] [FA] | [FA][_F=G][=FA] [_GB][FA][FA] | [Fd][Ac][GB] [FA]2 [FA] | AGF EFG | %4
 ccB [FA]2 [FA] | [FA][_F=G][=FA] [_GB][FA][FA] | [Fd][Ac][GB] [FA]2 [FA] | [Fd][Fd][Ac] Bed | %8
[M:5/8] cBc [Fd]2 |[M:1/8] F |[M:3/4] F4 z2 | G4 z2 | [CG]4 z2 | [FA]6 | A4 z2 | [GB]4 z2 | %16
 [Gc]4 z2 |[M:5/8] d-d- d3 |] %18
V:2
 z3 z2 [D,D] | [D,D][D,D][D,D] [D,D][D,D][D,D] | [D,A,][D,D][D,D] [D,D]2 [D,D] | %3
 [A,F][A,E][A,D] [A,C][A,D][A,E] | [A,G][A,G][A,G][K:bass] [D,D]2 [D,D] | %5
 [D,D][D,D][D,D] [D,D][D,D][D,D] | [D,A,][D,D][D,D] [D,D]2 [D,D] | %7
 [D,A,][D,A,][F,D][K:treble] [G,DG][G,B,G][G,B,G] |[M:5/8] [A,G][A,G][A,G][K:bass] [D,A,]2 | %9
[M:1/8] D |[M:3/4] D4 z2 | C4 z2 | A,,A,, A,,A, A,A, | D,D, D, D,2[K:treble] F | F4[K:bass] z2 | %15
 G,G, .G,2[K:treble] G[G,B,G] | A,A, A,[K:bass]A,, [A,,A,][A,,A,] | %17
[M:5/8] [D,A,][D,A,][D,B,] [D,A,]2 |] %18
V:3
 x6 | x6 | x6 | x6 | x6 | x6 | x6 | x6 |[M:5/8] x5 |[M:1/8] x |[M:3/4] z2 A,A, ED | %11
 z A, .A,2 F[A,CE] | A,A, .A,2 [DF][CE] | A,B, C D2 A | z2 DD [DEG][DF] | DD .D2 cd | %16
 z2 z A, [GB][Gc] |[M:5/8] FFG F2 |] %18
V:4
 x6 | x6 | x6 | x6 | x3[K:bass] x3 | x6 | x6 | x3[K:treble] x3 |[M:5/8] x3[K:bass] x2 |[M:1/8] x | %10
[M:3/4] z2 D,D, [D,G,D][D,F,] | [E,A,]E, .E,2 CE, | x6 | x5[K:treble] x | z2[K:bass] D,D, D,D, | %15
 z2 z .G,3[K:treble] | x3[K:bass] x3 |[M:5/8] x5 |] %18
V:5
 x6 | x6 | x6 | x6 | x6 | x6 | x6 | x6 |[M:5/8] x5 |[M:1/8] x |[M:3/4] x6 | z2 z .A,3 | x6 | x6 | %14
 x6 | z2 z .D3 | x6 |[M:5/8] x5 |] %18
V:6
 x6 | x6 | x6 | x6 | x3[K:bass] x3 | x6 | x6 | x3[K:treble] x3 |[M:5/8] x3[K:bass] x2 |[M:1/8] x | %10
[M:3/4] x6 | z2 z .E,3 | x6 | x5[K:treble] x | x2[K:bass] x4 | x4[K:treble] x2 | x3[K:bass] x3 | %17
[M:5/8] x5 |] %18

